build/system/PeopleSolid.svg

<svg xmlns="http://www.w3.org/2000/svg" fill="none" viewBox="0 0 24 24" focusable="false"><path d="M0 0H24V24H0z"/><path fill="#74767B" fill-rule="evenodd" d="M5.3922 7.96802C5.09129 5.32002 7.16261 3 9.82765 3C12.4927 3 14.564 5.32002 14.2631 7.96803L14.0011 10.274C13.7599 12.3966 11.9639 14 9.82765 14C7.69141 14 5.89544 12.3966 5.65424 10.274L5.3922 7.96802ZM13.9857 13.9066C13.8271 13.697 13.9862 13.4095 14.1489 13.2032C14.7636 12.4237 15.1734 11.4707 15.2928 10.4207L15.5548 8.11476C15.7585 6.32171 15.1199 4.64512 13.9701 3.45595C13.8823 3.36514 13.8252 3.23021 13.9017 3.12973C13.9612 3.05173 14.0533 3 14.1723 3C16.8374 3 18.9087 5.32002 18.6078 7.96803L18.3458 10.274C18.1046 12.3966 16.3086 14 14.1723 14C14.089 14 14.0288 13.9635 13.9857 13.9066ZM7.97402 15C5.16182 15 2.72694 16.9532 2.11689 19.6984L2.01695 20.1481C1.91981 20.5853 2.25246 21 2.70028 21L16.955 21C17.4028 21 17.7355 20.5853 17.6384 20.1481L17.5384 19.6984C16.9284 16.9532 14.4935 15 11.6813 15L7.97402 15ZM18.9351 20.5899C18.9168 20.7148 18.938 20.8525 19.0446 20.9202C19.1239 20.9705 19.215 21 19.3143 21L21.2997 21C21.7475 21 22.0802 20.5853 21.983 20.1481L21.8831 19.6984C21.382 17.4437 19.65 15.7232 17.4889 15.1804C17.1202 15.0878 16.8575 15.3404 16.814 15.6563C16.8009 15.7514 16.8478 15.8416 16.9148 15.9104C17.8346 16.8556 18.5052 18.0561 18.8075 19.4164L18.9074 19.8661C18.9622 20.1127 18.9691 20.3569 18.9351 20.5899Z"/></svg>

<svg xmlns="http://www.w3.org/2000/svg" fill="none" viewBox="0 0 24 24" focusable="false"><path fill="#74767B" fill-rule="evenodd" d="M9.82 3a4.46 4.46 0 0 0-4.43 4.96l.26 2.31A4.206 4.206 0 0 0 9.82 14c2.14 0 3.93-1.61 4.18-3.73l.26-2.31C14.56 5.32 12.49 3 9.82 3m4.16 10.9c-.16-.21 0-.5.16-.7.62-.78 1.03-1.73 1.15-2.78l.26-2.31a5.76 5.76 0 0 0-1.58-4.66c-.09-.09-.15-.22-.07-.33.06-.07.15-.12.27-.12a4.46 4.46 0 0 1 4.43 4.96l-.26 2.31A4.206 4.206 0 0 1 14.17 14c-.09 0-.15-.04-.19-.1M7.97 15c-2.81 0-5.25 1.95-5.86 4.69l-.1.45c-.1.44.24.86.69.86h14.25a.7.7 0 0 0 .68-.86l-.1-.45A5.99 5.99 0 0 0 11.68 15zm10.96 5.58c-.02.13 0 .27.11.34.08.05.17.08.27.08h1.98c.45 0 .79-.42.69-.86l-.1-.45a6 6 0 0 0-4.4-4.51c-.36-.1-.63.16-.67.47-.01.1.03.19.1.26.92.94 1.59 2.14 1.89 3.5l.1.45c.06.25.06.49.03.72"/></svg>
